openframe-frontend-core/src/components/icons-v2/brand-logos/spotify.svg

<svg width="24" height="24" viewBox="0 0 24 24" fill="none" xmlns="http://www.w3.org/2000/svg">
<path d="M20.8745 12.0005C20.8745 7.09912 16.9018 3.12526 12.0005 3.125C7.09896 3.125 3.125 7.09896 3.125 12.0005C3.12526 16.9018 7.09912 20.8745 12.0005 20.8745C16.9016 20.8742 20.8742 16.9016 20.8745 12.0005ZM23.1245 12.0005C23.1242 18.1443 18.1443 23.1242 12.0005 23.1245C5.85648 23.1245 0.875264 18.1444 0.875 12.0005C0.875 5.85632 5.85632 0.875 12.0005 0.875C18.1444 0.875264 23.1245 5.85648 23.1245 12.0005Z" fill="#888888"/>
<path d="M15.6455 15.0005C16.1974 15.2858 16.414 15.9647 16.1289 16.5166C15.8437 17.0683 15.1646 17.2849 14.6128 17L15.6455 15.0005ZM11.002 13.8755C12.6734 13.8755 14.2533 14.2808 15.6455 15.0005L15.1284 15.9995L14.6128 17C13.5325 16.4415 12.3055 16.1255 11.002 16.1255C10.2827 16.1255 9.58712 16.2214 8.92773 16.4009L8.6333 15.3154L8.3374 14.23C9.18763 13.9986 10.0814 13.8755 11.002 13.8755ZM8.92773 16.4009C8.32838 16.5637 7.71095 16.2092 7.54785 15.6099C7.38496 15.0105 7.73808 14.3931 8.3374 14.23L8.92773 16.4009ZM11.0005 10.3745C13.2292 10.3746 15.3212 10.9782 17.1177 12.0298C17.6533 12.3438 17.8327 13.0319 17.519 13.5679C17.2052 14.104 16.5171 14.2844 15.981 13.9707C14.5199 13.1155 12.819 12.6246 11.0005 12.6245C9.90022 12.6245 8.84392 12.8053 7.8584 13.1357L7.74707 13.1665C7.19098 13.2923 6.61848 12.9788 6.4331 12.4268C6.23556 11.8377 6.55306 11.199 7.14209 11.0015L7.60059 10.8579C8.68029 10.5431 9.82188 10.3745 11.0005 10.3745ZM11.5 6.875C14.145 6.875 16.6034 7.68547 18.6338 9.0708C19.1469 9.42091 19.2795 10.1206 18.9297 10.6338C18.5795 11.147 17.8785 11.2799 17.3652 10.9297C15.6975 9.7918 13.6792 9.125 11.5 9.125C10.0442 9.125 8.65222 9.39803 7.38232 9.85742C6.79811 10.0687 6.15372 9.76633 5.94238 9.18213C5.73131 8.59797 6.03355 7.9535 6.61768 7.74219C8.11202 7.20164 9.76203 6.875 11.5 6.875Z" fill="#888888"/>
</svg>

<svg xmlns="http://www.w3.org/2000/svg" width="24" height="24" fill="none" viewBox="0 0 24 24">
  <path fill="#888" d="M20.875 12a8.875 8.875 0 1 0-17.75 0 8.875 8.875 0 0 0 17.75 0Zm2.25 0c0 6.144-4.98 11.124-11.124 11.125C5.856 23.125.875 18.145.875 12 .875 5.856 5.856.875 12.001.875c6.143 0 11.124 4.981 11.124 11.126Z"/>
  <path fill="#888" d="M15.646 15a1.126 1.126 0 0 1-1.033 2l1.033-2Zm-4.644-1.124c1.671 0 3.251.405 4.643 1.125l-.517.998L14.613 17a7.837 7.837 0 0 0-3.611-.875c-.72 0-1.415.096-2.074.276l-.295-1.086-.296-1.085c.85-.231 1.744-.354 2.665-.354ZM8.928 16.4a1.125 1.125 0 0 1-.59-2.171l.59 2.17ZM11 10.374c2.23 0 4.321.604 6.118 1.656a1.124 1.124 0 0 1-1.137 1.94 9.827 9.827 0 0 0-4.98-1.346 9.86 9.86 0 0 0-3.143.512l-.11.03a1.126 1.126 0 0 1-.606-2.165l.459-.143a12.133 12.133 0 0 1 3.4-.484Zm.5-3.499c2.645 0 5.103.81 7.134 2.196a1.125 1.125 0 1 1-1.269 1.859A10.368 10.368 0 0 0 11.5 9.125c-1.456 0-2.848.273-4.118.732a1.124 1.124 0 1 1-.764-2.115 14.36 14.36 0 0 1 4.882-.867Z"/>
</svg>
